X: 94
T:MissMcLeod's
R:reel
S:Liz Carroll
D:Cherish the Ladies, Shanachie 7905
Z:Philippe Varlet
M:4/4
L:1/8
Q:220
K:G
G,B,DG c2BA|DGBA BcBG|G,B,DG B2AG|AFDF AdBA|
GABG dGEG|cGDG BGdG|c2Bd cded|Bd{e}dB AdBA:||
GBdb ageg|dB{e}BA B2AB|GBdb aged|eaga gedB|
GBdb ageg|dB{e}BA B2GB|edcB cded|Bd{e}dB AdBA:||
